; generated by PrusaSlicer 2.2.0+win64 on 2021-01-07 at 22:46:47 UTC

; 

; external perimeters extrusion width = 0.60mm
; perimeters extrusion width = 0.50mm
; infill extrusion width = 0.50mm
; solid infill extrusion width = 0.50mm
; top infill extrusion width = 0.45mm
; support material extrusion width = 0.38mm
; first layer extrusion width = 0.42mm

M73 P0 R134
M73 Q0 S135
M201 X1000 Y1000 Z200 E5000 ; sets maximum accelerations, mm/sec^2
M203 X200 Y200 Z12 E120 ; sets maximum feedrates, mm/sec
M204 P1250 R1250 T1250 ; sets acceleration (P, T) and retract acceleration (R), mm/sec^2
M205 X8.00 Y8.00 Z0.40 E4.50 ; sets the jerk limits, mm/sec
M205 S0 T0 ; sets the minimum extruding and travel feed rate, mm/sec
M107
M862.3 P "MK3S" ; printer model check
M862.1 P0.4 ; nozzle diameter check
M115 U3.9.1 ; tell printer latest fw version
G90 ; use absolute coordinates
M83 ; extruder relative mode
M104 S215 ; set extruder temp
M140 S60 ; set bed temp
M190 S60 ; wait for bed temp
M109 S215 ; wait for extruder temp
G28 W ; home all without mesh bed level
G80 ; mesh bed leveling
G1 Y-3.0 F1000.0 ; go outside print area
G92 E0.0
G1 X60.0 E9.0 F1000.0 ; intro line
M73 Q0 S135
M73 P0 R134
G1 X100.0 E12.5 F1000.0 ; intro line
G92 E0.0
M221 S95

; Don't change E values below. Excessive value can damage the printer.

M907 E538 ; set extruder motor current
G21 ; set units to millimeters
G90 ; use absolute coordinates
M83 ; use relative distances for extrusion
M900 K0.05 ; Filament gcode LA 1.5
M900 K30 ; Filament gcode LA 1.0
;BEFORE_LAYER_CHANGE
G92 E0.0
;0.2


G1 E-0.80000 F2100.00000
G1 Z0.600 F10800.000
;AFTER_LAYER_CHANGE
;0.2
G1 X67.300 Y41.941
G1 Z0.200
G1 E0.80000 F2100.00000
M204 S1000
G1 F1200.000
G1 X68.034 Y41.433 E0.02802
G1 X68.905 Y41.231 E0.02802
G1 X85.989 Y41.230 E0.53567
G1 X187.361 Y43.600 E3.17931
G1 X189.617 Y43.972 E0.07169
G1 X191.427 Y44.539 E0.05947
G1 X193.441 Y45.493 E0.06985
G1 X195.039 Y46.546 E0.06002
G1 X196.645 Y47.948 E0.06685
G1 X198.007 Y49.527 E0.06538
G1 X199.038 Y51.111 E0.05927
G1 X199.990 Y53.142 E0.07033
G1 X200.277 Y53.970 E0.02746
G1 X200.706 Y55.695 E0.05573
G1 X200.872 Y56.821 E0.03571
G1 X200.957 Y58.294 E0.04623
G1 X200.905 Y59.679 E0.04348
G1 X200.747 Y60.889 E0.03826
G1 X200.520 Y62.001 E0.03557
G1 X199.874 Y63.998 E0.06581
G1 X172.854 Y121.038 E1.97897
G1 X171.259 Y123.949 E0.10407
G1 X169.861 Y126.035 E0.07873
G1 X142.311 Y162.983 E1.44507
G1 X140.763 Y164.586 E0.06987
G1 X139.503 Y165.592 E0.05054
G1 X137.817 Y166.606 E0.06169
G1 X136.629 Y167.150 E0.04100
G1 X134.789 Y167.744 E0.06061
G1 X132.373 Y168.149 E0.07680
G1 X130.851 Y168.180 E0.04774
G1 X128.734 Y167.963 E0.06672
G1 X62.168 Y153.984 E2.13266
G1 X61.058 Y153.599 E0.03681
G1 X60.324 Y153.181 E0.02651
G1 X59.769 Y152.753 E0.02197
G1 X59.139 Y152.075 E0.02901
G1 X58.677 Y151.399 E0.02569
G1 X58.425 Y150.871 E0.01834
G1 X58.134 Y150.055 E0.02717
G1 X49.108 Y116.008 E1.10439
G1 X49.032 Y115.504 E0.01597
G1 X49.054 Y103.386 E0.37995
G1 X55.115 Y72.710 E0.98043
G1 X55.572 Y71.293 E0.04669
G1 X66.786 Y42.731 E0.96208
G1 X67.267 Y41.992 E0.02766
G1 F8640.000
G1 X68.034 Y41.433 E-0.21921
G1 X68.905 Y41.231 E-0.20633
G1 X70.354 Y41.231 E-0.33446
G1 E-0.04000 F2100.00000
G1 Z0.800 F10800.000
G1 X92.206 Y65.907
G1 Z0.200
G1 E0.80000 F2100.00000
G1 F1200.000
G1 X92.697 Y65.960 E0.01547
G1 X93.707 Y65.970 E0.03167
G1 X193.602 Y65.970 E3.13213
G1 X194.628 Y65.960 E0.03218
G1 X195.148 Y65.906 E0.01641
G1 X194.198 Y66.858 E0.04218
G1 X193.784 Y67.237 E0.01759
G1 X193.108 Y67.779 E0.02717
G1 X192.394 Y68.278 E0.02732
G1 X191.635 Y68.721 E0.02757
G1 X190.845 Y69.113 E0.02765
G1 X190.306 Y69.338 E0.01831
G1 X189.752 Y69.536 E0.01844
G1 X189.191 Y69.706 E0.01838
G1 X188.627 Y69.846 E0.01822
G1 X187.618 Y70.025 E0.03212
G1 X186.470 Y70.120 E0.03613
G1 X156.636 Y70.127 E0.93542
G1 X155.958 Y70.126 E0.02126
G1 X155.596 Y70.099 E0.01139
G1 X155.132 Y70.005 E0.01483
G1 X154.683 Y69.840 E0.01502
G1 X154.250 Y69.607 E0.01542
G1 X150.156 Y66.879 E0.15425
G1 X149.845 Y66.696 E0.01130
G1 X149.192 Y66.408 E0.02236
G1 X148.792 Y66.282 E0.01316
G1 X148.115 Y66.155 E0.02162
G1 X147.753 Y66.129 E0.01136
G1 X138.864 Y66.130 E0.27872
G1 X138.399 Y66.165 E0.01459
G1 X138.045 Y66.224 E0.01127
G1 X137.689 Y66.310 E0.01149
G1 X137.198 Y66.483 E0.01632
G1 X136.735 Y66.698 E0.01600
G1 X136.427 Y66.879 E0.01120
G1 X132.330 Y69.608 E0.15433
G1 X131.900 Y69.840 E0.01533
G1 X131.578 Y69.962 E0.01077
G1 X130.971 Y70.100 E0.01953
G1 X130.623 Y70.126 E0.01093
G1 X129.956 Y70.127 E0.02092
G1 X101.149 Y70.126 E0.90322
G1 X100.199 Y70.077 E0.02984
G1 X99.409 Y69.978 E0.02497
G1 X98.608 Y69.819 E0.02561
G1 X97.771 Y69.591 E0.02720
G1 X97.230 Y69.407 E0.01789
G1 X96.694 Y69.194 E0.01811
G1 X95.656 Y68.692 E0.03614
G1 X95.182 Y68.418 E0.01718
G1 X94.425 Y67.915 E0.02849
G1 X94.040 Y67.626 E0.01510
G1 X93.590 Y67.253 E0.01831
G1 X93.030 Y66.734 E0.02394
G1 X92.249 Y65.948 E0.03473
G1 F8640.000
G1 X92.697 Y65.960 E-0.10337
G1 X93.707 Y65.970 E-0.23321
G1 X95.541 Y65.970 E-0.42343
G1 E-0.04000 F2100.00000
G1 Z0.800 F10800.000
G1 X91.337 Y65.430
G1 Z0.200
G1 E0.80000 F2100.00000
G1 F1200.000
G1 X91.313 Y65.394 E0.00133
G1 X91.724 Y65.402 E0.01289
G1 X92.205 Y65.527 E0.01555
G1 X92.719 Y65.583 E0.01623
G1 X93.709 Y65.593 E0.03103
G1 X193.600 Y65.593 E3.13200
G1 X194.606 Y65.583 E0.03156
G1 X195.129 Y65.529 E0.01647
G1 X195.619 Y65.406 E0.01584
G1 X196.036 Y65.395 E0.01310
G1 X195.961 Y65.711 E0.01019
G1 X195.796 Y65.876 E0.00732
G1 X195.548 Y66.057 E0.00962
G1 X195.273 Y66.297 E0.01145
G1 X194.460 Y67.129 E0.03646
G1 X194.030 Y67.523 E0.01831
G1 X193.335 Y68.081 E0.02794
G1 X192.598 Y68.596 E0.02819
G1 X191.814 Y69.053 E0.02846
G1 X191.001 Y69.456 E0.02844
G1 X190.442 Y69.689 E0.01900
G1 X189.870 Y69.894 E0.01904
G1 X189.291 Y70.069 E0.01897
G1 X188.705 Y70.215 E0.01892
G1 X187.667 Y70.399 E0.03307
G1 X186.486 Y70.497 E0.03716
G1 X156.636 Y70.504 E0.93591
G1 X155.944 Y70.503 E0.02170
G1 X155.544 Y70.474 E0.01257
G1 X155.029 Y70.369 E0.01647
G1 X154.528 Y70.185 E0.01676
G1 X154.055 Y69.930 E0.01683
G1 X149.956 Y67.199 E0.15446
G1 X149.673 Y67.033 E0.01029
G1 X149.059 Y66.761 E0.02103
G1 X148.701 Y66.648 E0.01178
G1 X148.066 Y66.530 E0.02024
G1 X147.740 Y66.506 E0.01027
G1 X138.878 Y66.507 E0.27786
G1 X138.444 Y66.540 E0.01362
G1 X138.120 Y66.593 E0.01030
G1 X137.796 Y66.672 E0.01046
G1 X137.340 Y66.833 E0.01516
G1 X136.910 Y67.032 E0.01486
G1 X136.627 Y67.199 E0.01030
G1 X132.525 Y69.931 E0.15455
G1 X132.057 Y70.184 E0.01666
G1 X131.688 Y70.324 E0.01238
G1 X131.027 Y70.474 E0.02124
G1 X130.638 Y70.503 E0.01225
G1 X129.957 Y70.504 E0.02135
G1 X102.207 Y70.504 E0.87007
G1 X101.140 Y70.503 E0.03347
G1 X100.166 Y70.453 E0.03058
G1 X99.348 Y70.350 E0.02583
G1 X98.521 Y70.186 E0.02644
G1 X97.660 Y69.951 E0.02797
G1 X97.100 Y69.761 E0.01855
G1 X96.542 Y69.539 E0.01884
G1 X95.480 Y69.025 E0.03700
G1 X94.983 Y68.738 E0.01797
G1 X94.207 Y68.224 E0.02920
G1 X93.806 Y67.922 E0.01573
G1 X93.341 Y67.537 E0.01892
G1 X92.765 Y67.002 E0.02465
G1 X92.431 Y66.650 E0.01522
G1 X91.852 Y66.088 E0.02529
G1 X91.599 Y65.902 E0.00986
G1 X91.414 Y65.731 E0.00787
G1 X91.352 Y65.488 E0.00789
G1 X91.357 Y65.392 F10800.000
G1 X91.575 Y65.600
G1 F1200.000
G1 X91.807 Y65.710 E0.00420
G1 X92.038 Y65.821 E0.00493
G1 X92.772 Y66.074 F10800.000
G1 F1200.000
G1 X93.261 Y66.562 E0.02188
G1 X93.777 Y67.041 E0.02227
G1 X94.215 Y67.404 E0.01802
G1 X94.588 Y67.684 E0.01476
G1 X95.527 Y68.290 E0.03538
G1 X93.487 Y66.251 E0.09130
G1 X94.028 Y66.253 E0.01711
G1 X96.618 Y68.843 E0.11595
G1 X96.808 Y68.935 E0.00666
G1 X97.520 Y69.207 E0.02415
G1 X94.566 Y66.253 E0.13223
G1 X95.105 Y66.253 E0.01704
G1 X98.291 Y69.439 E0.14263
G1 X98.672 Y69.543 E0.01251
G1 X98.998 Y69.608 E0.01050
G1 X95.643 Y66.253 E0.15017
G1 X96.181 Y66.253 E0.01704
G1 X99.651 Y69.723 E0.15533
G1 X100.263 Y69.797 E0.01951
G1 X96.719 Y66.253 E0.15863
G1 X97.258 Y66.253 E0.01704
G1 X100.831 Y69.826 E0.15994
G1 X101.157 Y69.843 E0.01032
G1 X101.386 Y69.843 E0.00726
G1 X97.796 Y66.253 E0.16069
G1 X98.334 Y66.253 E0.01704
G1 X101.924 Y69.843 E0.16069
G1 X102.463 Y69.843 E0.01704
G1 X98.873 Y66.253 E0.16069
G1 X99.411 Y66.253 E0.01704
G1 X103.001 Y69.843 E0.16070
G1 X103.539 Y69.843 E0.01704
G1 X99.949 Y66.253 E0.16070
G1 X100.488 Y66.253 E0.01704
G1 X104.078 Y69.843 E0.16070
G1 X104.616 Y69.843 E0.01704
G1 X101.026 Y66.253 E0.16070
G1 X101.564 Y66.253 E0.01704
G1 X105.154 Y69.843 E0.16070
G1 X105.693 Y69.843 E0.01704
G1 X102.103 Y66.253 E0.16070
G1 X102.641 Y66.253 E0.01704
G1 X106.231 Y69.843 E0.16070
G1 X106.769 Y69.843 E0.01704
G1 X103.179 Y66.253 E0.16070
G1 X103.718 Y66.253 E0.01704
G1 X107.308 Y69.843 E0.16070
G1 X107.846 Y69.843 E0.01704
G1 X104.256 Y66.253 E0.16070
G1 X104.794 Y66.253 E0.01704
G1 X108.384 Y69.843 E0.16070
G1 X108.923 Y69.843 E0.01704
G1 X105.333 Y66.253 E0.16070
G1 X105.871 Y66.253 E0.01704
G1 X109.461 Y69.843 E0.16071
G1 X109.999 Y69.843 E0.01704
G1 X106.409 Y66.253 E0.16071
G1 X106.947 Y66.253 E0.01704
G1 X110.538 Y69.843 E0.16071
G1 X111.076 Y69.843 E0.01704
G1 X107.486 Y66.253 E0.16071
G1 X108.024 Y66.253 E0.01704
G1 X111.614 Y69.843 E0.16071
G1 X112.153 Y69.843 E0.01704
G1 X108.562 Y66.253 E0.16071
G1 X109.101 Y66.253 E0.01704
G1 X112.691 Y69.843 E0.16071
G1 X113.229 Y69.843 E0.01704
G1 X109.639 Y66.253 E0.16071
G1 X110.177 Y66.253 E0.01704
G1 X113.768 Y69.843 E0.16071
G1 X114.306 Y69.843 E0.01704
G1 X110.716 Y66.253 E0.16071
G1 X111.254 Y66.253 E0.01704
G1 X114.844 Y69.844 E0.16071
G1 X115.383 Y69.844 E0.01704
G1 X111.792 Y66.253 E0.16071
G1 X112.331 Y66.253 E0.01704
G1 X115.921 Y69.844 E0.16072
G1 X116.459 Y69.844 E0.01704
G1 X112.869 Y66.253 E0.16072
G1 X113.407 Y66.253 E0.01704
G1 X116.998 Y69.844 E0.16072
M73 Q0 S134
G1 X117.536 Y69.844 E0.01704
G1 X113.946 Y66.253 E0.16072
M73 P0 R133
G1 X114.484 Y66.253 E0.01704
G1 X118.074 Y69.844 E0.16072
G1 X118.613 Y69.844 E0.01704
G1 X115.022 Y66.253 E0.16072
G1 X115.560 Y66.253 E0.01704
G1 X119.151 Y69.844 E0.16072
G1 X119.689 Y69.844 E0.01704
G1 X116.099 Y66.253 E0.16072
G1 X116.637 Y66.253 E0.01704
G1 X120.228 Y69.844 E0.16072
G1 X120.766 Y69.844 E0.01704
G1 X117.175 Y66.253 E0.16072
G1 X117.714 Y66.253 E0.01704
G1 X121.304 Y69.844 E0.16072
G1 X121.843 Y69.844 E0.01704
G1 X118.252 Y66.253 E0.16072
G1 X118.790 Y66.253 E0.01704
G1 X122.381 Y69.844 E0.16073
G1 X122.919 Y69.844 E0.01704
G1 X119.329 Y66.253 E0.16073
G1 X119.867 Y66.253 E0.01704
G1 X123.458 Y69.844 E0.16073
G1 X123.996 Y69.844 E0.01704
G1 X120.405 Y66.253 E0.16073
G1 X120.944 Y66.253 E0.01704
G1 X124.534 Y69.844 E0.16073
G1 X125.073 Y69.844 E0.01704
G1 X121.482 Y66.253 E0.16073
G1 X122.020 Y66.253 E0.01704
G1 X125.611 Y69.844 E0.16073
G1 X126.149 Y69.844 E0.01704
G1 X122.559 Y66.253 E0.16073
G1 X123.097 Y66.253 E0.01704
G1 X126.688 Y69.844 E0.16073
G1 X127.226 Y69.844 E0.01704
G1 X123.635 Y66.253 E0.16073
G1 X124.174 Y66.253 E0.01704
G1 X127.764 Y69.844 E0.16073
G1 X128.303 Y69.844 E0.01704
G1 X124.712 Y66.253 E0.16074
G1 X125.250 Y66.253 E0.01704
G1 X128.841 Y69.844 E0.16074
G1 X129.379 Y69.844 E0.01704
G1 X125.788 Y66.253 E0.16074
G1 X126.327 Y66.253 E0.01704
G1 X129.918 Y69.844 E0.16074
G1 X130.455 Y69.843 E0.01702
G1 X126.865 Y66.253 E0.16071
G1 X127.403 Y66.253 E0.01704
G1 X130.963 Y69.812 E0.15932
G1 X131.401 Y69.712 E0.01423
G1 X127.942 Y66.253 E0.15484
G1 X128.480 Y66.253 E0.01704
G1 X131.800 Y69.573 E0.14859
G1 X132.149 Y69.384 E0.01257
G1 X129.018 Y66.253 E0.14014
G1 X129.557 Y66.253 E0.01704
G1 X132.475 Y69.171 E0.13063
G1 X132.798 Y68.956 E0.01229
G1 X130.095 Y66.253 E0.12100
G1 X130.633 Y66.253 E0.01704
G1 X133.121 Y68.741 E0.11136
G1 X133.444 Y68.526 E0.01229
G1 X131.172 Y66.253 E0.10173
G1 X131.710 Y66.253 E0.01704
G1 X133.767 Y68.311 E0.09210
G1 X134.091 Y68.095 E0.01229
G1 X132.248 Y66.253 E0.08247
G1 X132.787 Y66.253 E0.01704
G1 X134.414 Y67.880 E0.07283
G1 X134.737 Y67.665 E0.01229
G1 X133.325 Y66.253 E0.06320
G1 X133.863 Y66.253 E0.01704
G1 X135.060 Y67.450 E0.05357
G1 X135.383 Y67.235 E0.01229
G1 X134.402 Y66.253 E0.04393
G1 X134.940 Y66.253 E0.01704
G1 X135.706 Y67.019 E0.03430
G1 X136.029 Y66.804 E0.01229
G1 X135.478 Y66.253 E0.02467
G1 X136.016 Y66.253 E0.01704
G1 X136.480 Y66.717 E0.02075
G1 X136.777 Y66.299 F10800.000
G1 F1200.000
G1 X137.428 Y66.180 E0.00467
G1 F8640.000
G1 X136.777 Y66.299 E-0.15275
G1 E-0.64725 F2100.00000
G1 Z0.800 F10800.000
G1 X149.168 Y66.180
G1 Z0.200
G1 E0.80000 F2100.00000
G1 F1200.000
G1 X149.806 Y66.294 E0.00408
G1 X150.146 Y66.083 F10800.000
G1 F1200.000
G1 X151.493 Y67.430 E0.06000
G1 X153.098 Y68.500 E0.06076
G1 X150.852 Y66.253 E0.10009
G1 X151.387 Y66.253 E0.01688
G1 X154.619 Y69.484 E0.14396
G1 X154.799 Y69.582 E0.00645
G1 X155.210 Y69.732 E0.01378
G1 X155.452 Y69.781 E0.00777
G1 X151.923 Y66.253 E0.15719
G1 X152.459 Y66.253 E0.01688
G1 X156.049 Y69.843 E0.15995
G1 X156.586 Y69.844 E0.01690
G1 X152.995 Y66.253 E0.15998
G1 X153.531 Y66.253 E0.01688
G1 X157.122 Y69.844 E0.15998
G1 X157.657 Y69.844 E0.01688
G1 X154.066 Y66.253 E0.15998
G1 X154.602 Y66.253 E0.01688
G1 X158.193 Y69.844 E0.15997
G1 X158.729 Y69.844 E0.01688
G1 X155.138 Y66.253 E0.15996
G1 X155.674 Y66.253 E0.01688
G1 X159.264 Y69.843 E0.15996
G1 X159.800 Y69.843 E0.01688
G1 X156.210 Y66.253 E0.15995
G1 X156.745 Y66.253 E0.01688
G1 X160.336 Y69.843 E0.15995
G1 X160.871 Y69.843 E0.01688
G1 X157.281 Y66.253 E0.15994
G1 X157.817 Y66.253 E0.01688
G1 X161.407 Y69.843 E0.15994
G1 X161.943 Y69.843 E0.01688
G1 X158.353 Y66.253 E0.15993
G1 X158.889 Y66.253 E0.01688
G1 X162.478 Y69.843 E0.15993
G1 X163.014 Y69.843 E0.01688
G1 X159.424 Y66.253 E0.15992
G1 X159.960 Y66.253 E0.01688
G1 X163.550 Y69.842 E0.15991
G1 X164.085 Y69.842 E0.01688
G1 X160.496 Y66.253 E0.15991
G1 X161.032 Y66.253 E0.01688
G1 X164.621 Y69.842 E0.15990
G1 X165.157 Y69.842 E0.01688
G1 X161.568 Y66.253 E0.15990
G1 X162.103 Y66.253 E0.01688
G1 X165.692 Y69.842 E0.15989
G1 X166.228 Y69.842 E0.01688
G1 X162.639 Y66.253 E0.15989
G1 X163.175 Y66.253 E0.01688
G1 X166.764 Y69.842 E0.15988
G1 X167.299 Y69.842 E0.01688
G1 X163.711 Y66.253 E0.15988
G1 X164.247 Y66.253 E0.01688
G1 X167.835 Y69.841 E0.15987
G1 X168.371 Y69.841 E0.01688
G1 X164.782 Y66.253 E0.15986
G1 X165.318 Y66.253 E0.01688
G1 X168.906 Y69.841 E0.15986
G1 X169.442 Y69.841 E0.01688
G1 X165.854 Y66.253 E0.15985
G1 X166.390 Y66.253 E0.01688
G1 X169.978 Y69.841 E0.15985
G1 X170.513 Y69.841 E0.01688
G1 X166.926 Y66.253 E0.15984
G1 X167.461 Y66.253 E0.01688
G1 X171.049 Y69.841 E0.15984
G1 X171.585 Y69.841 E0.01688
G1 X167.997 Y66.253 E0.15983
G1 X168.533 Y66.253 E0.01688
G1 X172.120 Y69.840 E0.15983
G1 X172.656 Y69.840 E0.01688
G1 X169.069 Y66.253 E0.15982
G1 X169.605 Y66.253 E0.01688
G1 X173.192 Y69.840 E0.15981
G1 X173.728 Y69.840 E0.01688
G1 X170.140 Y66.253 E0.15981
G1 X170.676 Y66.253 E0.01688
G1 X174.263 Y69.840 E0.15980
G1 X174.799 Y69.840 E0.01688
G1 X171.212 Y66.253 E0.15980
G1 X171.748 Y66.253 E0.01688
G1 X175.335 Y69.840 E0.15979
G1 X175.870 Y69.840 E0.01688
G1 X172.284 Y66.253 E0.15979
G1 X172.819 Y66.253 E0.01688
G1 X176.406 Y69.839 E0.15978
G1 X176.942 Y69.839 E0.01688
G1 X173.355 Y66.253 E0.15978
G1 X173.891 Y66.253 E0.01688
G1 X177.477 Y69.839 E0.15977
G1 X178.013 Y69.839 E0.01688
G1 X174.427 Y66.253 E0.15976
G1 X174.963 Y66.253 E0.01688
G1 X178.549 Y69.839 E0.15976
G1 X179.084 Y69.839 E0.01688
G1 X175.498 Y66.253 E0.15975
G1 X176.034 Y66.253 E0.01688
G1 X179.620 Y69.839 E0.15975
G1 X180.156 Y69.839 E0.01688
G1 X176.570 Y66.253 E0.15974
G1 X177.106 Y66.253 E0.01688
G1 X180.691 Y69.838 E0.15974
G1 X181.227 Y69.838 E0.01688
G1 X177.642 Y66.253 E0.15973
G1 X178.178 Y66.253 E0.01688
G1 X181.763 Y69.838 E0.15973
G1 X182.298 Y69.838 E0.01688
G1 X178.713 Y66.253 E0.15972
G1 X179.249 Y66.253 E0.01688
G1 X182.834 Y69.838 E0.15971
G1 X183.370 Y69.838 E0.01688
G1 X179.785 Y66.253 E0.15971
G1 X180.321 Y66.253 E0.01688
G1 X183.905 Y69.838 E0.15970
G1 X184.441 Y69.838 E0.01688
G1 X180.857 Y66.253 E0.15970
G1 X181.392 Y66.253 E0.01688
G1 X184.977 Y69.837 E0.15969
G1 X185.512 Y69.837 E0.01688
G1 X181.928 Y66.253 E0.15969
G1 X182.464 Y66.253 E0.01688
